X:10
T:O'Connel's Trip to Parliment
S:Sean Gavin
R:Reel
M:4/4
L:1/8
K:D
dcAF G2FG | Adde fded | dcAF G2FG | AFGE FDD2 :|
|:f3a gfed | (3Bcd ef g2fe | defg a2ge | a2ge edd2 :|


